icons/1_Primary/SuperHosting.BG.svg

<svg xmlns="http://www.w3.org/2000/svg" width="1024" height="1024" fill="none">
   <g clip-path="url(#a)">
      <path fill="#F8C18C" d="M512 1024c282.77 0 512-229.23 512-512S794.77 0 512 0 0 229.23 0 512s229.23 512 512 512Z"/>
      <path fill="#fff" d="m258 641.63 3.26-64.81A197.402 197.402 0 0 0 355.05 600c30.58 0 39.95-10.14 39.95-24 0-18.75-19.57-22.83-51.36-32.2-46.47-13.86-87.64-31.39-87.64-90.5 0-64.81 48.1-88.86 105.58-88.86 35.06 0 70.52 8.15 94.57 15.9l-3.26 62.37c-17.53-7.75-44-18.75-84-18.75C336.71 424 331 437.4 331 448c0 20.79 23.64 25.27 51.77 33.83 50.55 14.67 86 32.61 86 87.64 0 64-47.29 90.09-110.88 90.09-38.71 0-74.99-8.15-99.89-17.93Zm437.6 12.72V545h-96v109.35h-72.31V369.73h72.38v115.48h96V369.73H768v284.62h-72.4Z"/>
   </g>
   <defs>
      <clipPath id="a">
         <path fill="#fff" d="M0 0h1024v1024H0z"/>
      </clipPath>
   </defs>
</svg>

<svg width="1024" height="1024" viewBox="0 0 1024 1024" fill="none" xmlns="http://www.w3.org/2000/svg">
<g clip-path="url(#clip0_2_3582)">
<path d="M512 1024C794.77 1024 1024 794.77 1024 512C1024 229.23 794.77 0 512 0C229.23 0 0 229.23 0 512C0 794.77 229.23 1024 512 1024Z" fill="#F8C18C"/>
<path d="M258 641.63L261.26 576.82C290.121 592.196 322.349 600.161 355.05 600C385.63 600 395 589.86 395 576C395 557.25 375.43 553.17 343.64 543.8C297.17 529.94 256 512.41 256 453.3C256 388.49 304.1 364.44 361.58 364.44C396.64 364.44 432.1 372.59 456.15 380.34L452.89 442.71C435.36 434.96 408.89 423.96 368.89 423.96C336.71 424 331 437.4 331 448C331 468.79 354.64 473.27 382.77 481.83C433.32 496.5 468.77 514.44 468.77 569.47C468.77 633.47 421.48 659.56 357.89 659.56C319.18 659.56 282.9 651.41 258 641.63ZM695.6 654.35V545H599.6V654.35H527.29V369.73H599.67V485.21H695.67V369.73H768V654.35H695.6Z" fill="white"/>
</g>
<defs>
<clipPath id="clip0_2_3582">
<rect width="1024" height="1024" fill="white"/>
</clipPath>
</defs>
</svg>
